X:1
T:The Liberty Bell
T:THE  LIBERTY  BELL MARCH.
T:JOHN  PHILIP SOUSA.
T:Public Domain
T:Public Domain
T:Public Domain
T:Public Domain
T:Public Domain
T:Public Domain
C:John Philip Sousa
Z:Public Domain
%%score { ( 1 3 ) | 2 }
L:1/8
Q:3/8=120
M:6/8
K:F
V:1 treble nm="Piano"
V:3 treble 
V:2 bass 
V:1
!ff! ([Ff]2 [Ee] [Dd]2 !4![_D_d] | [Cc]2 [=B,=B] !4![_B,_B]2 [A,A]) | %2
 .[G,G].[A,A].!4![B,B] [A,A]2 [G,G] | C2 z z2 c |: %4
!p! !1!!2![FA]z!2!!4![FA] !1!!3![FA]!2!^G!1!!3![FA] | !2!!5![Af]z[Ac] [Ac]z[FA] | %6
!<(! [GB]2 [GB] [GB]2!<)! [Ac] |!>(! [Bd]3-!>)! [Bd]2 [GB] |!p! [EG]z[EG] [EG]^F[EG] | %9
 [Be]z[Bd] [Bd]z[GB] | [FA]z!<(![FA] [FA]z[GB]!<)! | [Ac]3- [Ac]2 [Ac] | [FA]z[FA] [FA]^G[FA] | %13
 [ca]z[Af] [Af]z[Ac] | [G=B]zg!<(! [Bdg]zg | [=Bdg]3-!<)! [Bdg]2 f |!f! (!>!ezg g^fg) | %17
 (!>!dzg g^fg) | !>![EGc]z[FG=B] !>![EGc]z[FGB] |1 [EGc]3 [EGc]3 :|2 [EGc]3 !>!B3 |: %21
!p! (!3!A!2!^G!1!A !4!d2 !3!c | !2!A3 !1!F3) | (!2!D3 !5!G3 | !4!F3- F2) !3!F | (!1!GAB e2 d) | %26
 [Ac]3 !2!!3!!5![_Acf]3 | !1!!3!!5![Gce]3 !1!!3!!5![F=Bd]3 | !1!!2!!5![EGc]3- [EGc]2 c | %29
 (dzd{/e} d^cd) | [Ae]3 [Ge]3 |!<(! f2 f{/a} (g!<)!f)g | (^c6 |{/a} [dg])zf!>(! dzB!>)! | A3 F3 | %35
 G3 E3 |1 F3- F2 c :|2 F3- F2 F ||[K:Bb]!p!!<(! ([DBd]3 [EBe]3!<)! | [=EB=e]3 [FBf]3) | %40
!8va(! !arpeggio!!^![fbd']z[fbd'] [fbd']z[=eb^c'] | [fbd']3- [fbd']2!8va)!!p! F | %42
 ([DBd]3!<(! [EBe]3 | [=EB=e]3!<)! [FBf]3) |!8va(! !^![fc'e']z[fc'e'] [fc'e']z[f=bd'] | %45
 [fc'e']3- [fc'e']2!8va)! d | (c3 =B3 | [FAc]2) (F =E2 F) | (d3 ^c3 | [FBd]2) (F =E2 F) | A3 c3 | %51
 (B2 c) (G2 B) |!f! (A2 B) (G2 A) |!>(! (F2 G)!>)! (E2 F) | ([DBd]3!<(! [EBe]3 | %55
 [=EB=e]3!<)! [FBf]3) |!8va(! [fbd']z[fbd'] [fbd']z[=eb^c'] | [fbd']3- [fbd']2!8va)! F | %58
!<(! ([DBd]3 [EBe]3!<)! | [=EB=e]3 [FBf]3) |!8va(! [fc'e']z[fc'e'] [fc'e']z[f=bd'] | %61
 [fc'e']3- [fc'e']2!8va)! d | (!>!c3"_cresc." =B3 | [CFAc]2) (F =E2 F) | (d3 ^c3 | %65
 [DFBd]2) (F!<(! =E2 F)!<)! |!f! (G3 e3) | (d2 B c2 A) | (B6 | [DFB]2)!ff! z z2 z |: %70
!f! z2 [EAe] [EAe][EAd][EAc] | [DGB]3 z2 z | z2 .[EAe] .[EAe].[EAd].[EAc] | [DGB]2 z z2 z | %74
 z2 [EAe] [EAe][EAd][EAc] | [DGB]2 [DGB] [EGc][EGB][EGc] | [D^FAd]2 z!8va(! [d^fad']2 z | %77
!ff! [d'^f'a'd'']2!8va)! z z2 z | z2 .[Geg] .[Geg].[Fdf].[Ece] | [DBd]2 z z2 z | %80
 z2 [Geg] [Geg][Fdf][Ece] | [DBd]2 z z2 z | z2 [Geg] [Geg][Fdf][Ece] | [DBd]2 [DBd] [=EB=e]d[EBe] | %84
 [FAcf]2 z!8va(! [fac'f']2!8va)! z |!ff!!8va(! [f'a'c''f'']2!8va)! z z2 z | z2 z z2 !^![=EB_d=e] | %87
 !^![FAcf]2 !^!c' !^![ff']3 | z2 z z2 !^![=EB_d=e] | !^![FAcf]2 !^!c' !^![ff']3 | !^![=EB_d=e]6 | %91
 !^![FB=df]6 | !^![_GBe_g]6 | [FAef]3!<(! !^![Ee]3!<)! ||!ff! !^![Dd]3 !^![Ee]3 | %95
 !^![=E=e]3 !^![Ff]3 | !^![fbd']z[fbd'] [fbd']z[=eb^c'] | [fbd']3- [fbd']2 [Ff] | %98
 !^![Dd]3 !^![Ee]3 | !^![=E=e]3 !^![Ff]3 | [eae']z[eae'] [eae']z[d^gd'] | [eae']3- [eae']2 [dd'] | %102
 !^![cc']3 !^![=B=b]3 | [cfac']2 ([Ff] [=E=e]2 [Ff]) | !^![dd']3 !^![^c^c']3 | %105
 [fbd']2 ([Ff] [=E=e]2 [Ff]) | !^![Aa]3 !^![cc']3 | ([Bb]2 [cc']) ([Gg]2 [Bb]) | %108
 (!^!a2 b) (!^!g2 a) | (f2 g) (e2 f) |!<(! !^![Dd]3 !^![Ee]3 | !^![=E=e]3!<)! !^![Ff]3 | %112
!fff! !^![fbd']z[fbd'] [fbd']z[=eb^c'] | [fbd']3- [fbd']2 f |!<(! !^![Dd]3 !^![Ee]3 | %115
 !^![=E=e]3 !^![Ff]3!<)! |!f! !^![eae']z[eae'] [eae']z[d^gd'] | [eae']3- [eae']2 [dd'] | %118
 !^![cc']3 !^![=B=b]3 | [cfac']2 ([Ff] [=E=e]2 [Ff]) | !^![dd']3 !^![^c^c']3 | %121
 [dfbd']2 ([Ff] [=E=e]2 [Ff]) | !^![Gg]3 !^![ee']3 | !^![dd']2 [Bb] !^![cc']2 [Aa] |1 [Bb]6- | %125
 [Bdfb]2 z z2 z :|2 [Bb]6- | [Bdfb]2 z !^![Bdfb]2 z |] %128
V:2
 (!2!F,2 !3!E, !1!D,2 !2!_D, | !3!C,2 !1!=B,, !2!_B,,2 !3!A,,) | %2
 .!4!G,,.!3!A,,.!2!B,, !1!A,,2 !3!G,, | [C,,C,]2 z z2 z |: %4
!ped! F,,z[F,A,C] [F,A,C]z[F,A,C]!ped-up! |!ped! F,,z[F,A,C] [F,A,C]z[F,A,C]!ped-up! | %6
 ([E,,E,]2 [F,,F,] [G,,G,]2 [F,,F,] | [E,,E,]2 [D,,D,] [C,,C,]2) z | %8
!ped! [C,,C,]z[B,C] [B,C]z[B,C]!ped-up! |!ped! [G,,G,]z[B,C] C,z[B,C]!ped-up! | %10
 ([F,,F,]2 [G,,G,] [A,,A,]2 [G,,G,] | [F,,F,]2!>(! [E,,E,] [D,,D,]2!>)! [C,,C,]) | %12
!ped! [F,,F,]z[F,A,C] [F,A,C]z[F,A,C]!ped-up! |!ped! [F,,F,]z[F,A,C] [F,A,C]z[F,A,C]!ped-up! | %14
 ([D,,D,]2 [E,,E,] [F,,F,]2 [E,,E,] | [D,,D,]2 [C,,C,] [=B,,,=B,,]2 [A,,,A,,]) | %16
!ped! [G,,,G,,]z[E,G,C] [E,G,C]z[E,G,C]!ped-up! | %17
!ped! [G,,,G,,]z[F,G,=B,] [F,G,B,]z[F,G,B,]!ped-up! | %18
!ped! !>![C,,C,]z[G,,,G,,] !>![C,,C,]z[G,,,G,,] |1 %19
 [C,,C,]2!ped-up! z!ped! [C,E,G,C] z z!ped-up! :|2 [C,,C,]2 z z2 z |: %21
!ped! F,z[A,C] C,z[A,C]!ped-up! |!ped! F,z[A,C] A,,z[F,C]!ped-up! | %23
!ped! B,,z[F,B,]!ped-up!!ped! C,z[E,B,]!ped-up! |!ped! F,,z[F,A,C] [F,A,C]z[F,A,C]!ped-up! | %25
!ped! E,z[B,C] C,z[B,C]!ped-up! |!ped! F,z[A,C]!ped-up!!ped! D,z[_A,C]!ped-up! | %27
!ped! G,, z{/^F,}G,!ped-up!!ped! G,, z{/F,}G,!ped-up! |!ped! C,z[G,C] [G,C]z[G,C]!ped-up! | %29
!ped! B,,z"^cre  -  scen -"[B,D] [B,D]z[B,D]!ped-up! | %30
"^-  do."!ped! A,,z[A,^C] [A,C]z[A,C]!ped-up! |!ped! D,z[A,D] B,,z[B,D]!ped-up! | %32
!ped! A,,z[A,E] [A,E]z[A,E]!ped-up! |!ped! B,,z[B,DG] [B,DG]z[B,DG]!ped-up! | %34
!ped! C,z[A,C] [A,C]z[A,C]!ped-up! |!ped! E,z[B,C] C,z[B,C]!ped-up! |1 %36
!ped! [F,A,C]z[F,A,C] [F,A,C]2 z!ped-up! :|2 [F,A,C]z[F,A,C] [F,A,C]2 z || %38
[K:Bb]!ped! !^!B,,zB, !^!C,zB, | !^!^C,zB, !^!D,zB,!ped-up! |!ped! B,,z[B,DF] [B,DF]z[B,^C=E] | %41
 B,,z[B,DF]!ped-up! [B,DF]z[F,B,D] |!ped! !^!B,,zB, !^!C,zB, | ^C,zB, D,zB,!ped-up! | %44
!ped! F,,z[A,CE] [A,CE]z[^G,=B,D] | F,,z[A,CE] [A,CE]z!ped-up![A,CE] | %46
!ped! F,,z[F,A,]!ped-up!!ped! F,,z[F,^G,]!ped-up! |!ped! F,,z[F,A,] F,,z[F,A,]!ped-up! | %48
!ped! B,,z[F,B,]!ped-up!!ped! B,,z[B,^C]!ped-up! |!ped! B,,z[F,B,D] B,,z[F,B,D]!ped-up! | %50
!ped! C,z[F,A,C] C,z[F,A,C]!ped-up! |!ped! C,z[=E,B,C] C,z[E,B,C]!ped-up! | %52
!ped! (F,,2 F,) (F,,2 F,)!ped-up! | (F,,2 F,) (F,,2 F,) | !^!B,,zB, !^!C,zB, | !^!^C,zB, !^!D,zB, | %56
 B,,z[B,DF] [B,DF]z[B,^C=E] | B,,z[B,DF] [B,DF]z[F,B,D] | !^!B,,zB, !^!C,zB, | !^!^C,zB, !^!D,zB, | %60
!ped! F,,z[A,CE] [A,CE]z[^G,=B,D] | F,,z[A,CE] [A,CE]z!ped-up![A,CE] | %62
!ped! F,,z[F,A,C]!ped-up!!ped! F,,z[F,^G,=B,]!ped-up! |!ped! F,,z[F,A,C] [F,A,C]z[F,A,C]!ped-up! | %64
!ped! B,,z[F,B,]!ped-up!!ped! B,,z[B,^C]!ped-up! |!ped! B,,z[F,B,D] [F,B,D]z[F,B,D]!ped-up! | %66
!ped! E,z[G,B,E] C,z[G,B,E]!ped-up! |!ped! F,z[G,B,D]!ped-up!!ped! F,,z[F,A,E]!ped-up! | %68
!ped! B,,z[F,B,] [F,B,]z[F,B,] | %69
 [B,,B,]2!ped-up!!ped! .[B,,B,]"^marcato." .[B,,B,].[A,,A,].[G,,G,]!ped-up! |:!ped! (([^F,,^F,]6 | %71
 [G,,G,]2)) .[B,,B,] .[B,,B,].[A,,A,].[G,,G,] | (([^F,,^F,]6 | %73
 [G,,G,]2)) [B,,B,] [B,,B,][A,,A,][G,,G,] | (([^F,,^F,]6 | [G,,G,]2)) [G,B,] [E,G,]2 [E,G,] | %76
 [D,^F,A,]2 z [D,,D,]2 z | z2!ped-up!!ped! .[D,D] .[D,D].[C,C].[B,,B,] | (([A,,A,]6 | %79
 [B,,B,]2)) .[D,D] .[D,D].[C,C].[B,,B,] | (([A,,A,]6 | [B,,B,]2)) [D,D] [D,D][C,C][B,,B,] | %82
 (([A,,A,]6 | [B,,B,]3)) [_G,,_G,]3 | [F,,F,]2 z [F,,F,]2 z | %85
 z2 [F,,F,]!ped-up!!ped! [F,,F,][F,,F,][F,,F,] | [_G,,_G,]2 [_D,_D] [B,,B,]2 !^![G,,G,] | %87
 !^![F,,F,]2 !^!C, !^![F,,F,]2 [F,,F,]!ped-up! |!ped! [_G,,_G,]2 [_D,_D] [B,,B,]2 !^![G,,G,] | %89
 !^![F,,F,]2 !^!C, !^![F,,F,]2 [F,,F,]!ped-up! | %90
!ped! !^![B,,B,]2 [A,,A,] [B,,B,]2 [_G,,_G,]!ped-up! | !^![F,,F,]2 [=E,,=E,] [F,,F,]2 [D,,D,] | %92
 !^![C,,C,]2 [D,,D,] [E,,E,]2 [C,,C,] | [F,,F,]3 z2 z || !^!B,,z[D,B,] !^!C,z[E,B,] | %95
 !^!^C,z[=E,B,] !^!D,z[F,B,] | B,,z[B,DF] [B,DF]z[B,^C=E] | B,,z[B,DF] [B,DF]z[B,D] | %98
 !^!B,,z[D,B,] !^!C,z[E,B,] | !^!^C,z[=E,B,] !^!D,z[F,B,] | C,z[A,CE] [A,CE]z[^G,=B,D] | %101
 F,,z[A,CE] [A,CE]z[A,CE] | F,,z[F,A,] F,,z[F,^G,] | F,,2 ([F,,F,] [=E,,=E,]2 [F,,F,]) | %104
 B,,z[F,B,] B,,z[B,^C] | B,,2 ([F,,F,] [=E,,=E,]2 [F,,F,]) | C,z[F,A,C] C,z[F,A,C] | %107
 C,z[=E,B,C] C,z[E,B,C] | (F,,2 F,) (F,,2 F,) | (F,,2 F,) (F,,2 F,) | !^!B,,z[D,B,] !^!C,z[E,B,] | %111
 !^!^C,z[=E,B,] !^!D,z[F,B,] | B,,z[B,DF] [B,DF]z[B,^C=E] | B,,z[B,DF] [B,DF]z[B,D] | %114
 !^!B,,z[D,B,] !^!C,z[E,B,] | ^C,z[=E,B,] D,z[F,B,] | =C,z[A,CE] [A,CE]z[^G,=B,D] | %117
 F,,z[A,CE] [A,CE]z[A,CE] | F,,z[F,A,] F,,z[F,^G,] | [F,,F,]2 ([F,,F,] [=E,,=E,]2 [F,,F,]) | %120
 B,,z[F,B,] B,,z[B,^C] | B,,2 ([F,,F,] [=E,,=E,]2 [F,,F,]) | E,z[G,B,E] C,z[G,B,E] | %123
 F,z[B,D] F,,z[F,A,CE] |1!ped! B,,2 [B,,B,] [F,,F,]2 [D,,D,] | %125
 [B,,,B,,]2!ped-up!!ped! .[B,,B,] .[B,,B,].[A,,A,].[G,,G,]!ped-up! :|2 %126
 B,,2 [B,,B,] [F,,F,]2 [D,,D,] | [B,,,B,,]2 z !^![B,,,B,,]2 z |] %128
V:3
 x6 | x6 | x6 | x6 |: x6 | x6 | x6 | x6 | x6 | x6 | x6 | x6 | x6 | x6 | x6 | x6 | [Gc]3 [Gc]3 | %17
 [G=B]3 [Gd]3 | x6 |1 x6 :|2 x6 |: x6 | x6 | x6 | x6 | G3 [GB]3 | x6 | x6 | x6 | F6 | x6 | F3 d3 | %32
 a3- a2 a | x6 | x6 | x6 |1 x6 :|2 x6 ||[K:Bb] x6 | x6 |!8va(! x6 | x5!8va)! x | x6 | x6 | %44
!8va(! x6 | x5!8va)! x | z2 [CEA] z2 [=B,D^G] | x6 | z2 [DFB] z2 [=EGB] | x6 | x6 | x6 | %52
 [CE]3 [B,E]3 | [A,E]3 [A,C]3 | x6 | x6 |!8va(! x6 | x5!8va)! x | x6 | x6 |!8va(! x6 | x5!8va)! x | %62
 z2 [EA] z2 [D^G] | x6 | z2 [DFB] z2 [=EGB] | x6 | x6 | x6 | z2 [DF] [DF]2 [DF] | x6 |: x6 | x6 | %72
 x6 | x6 | x6 | x6 | x3!8va(! x3 | x2!8va)! x4 | x6 | x6 | x6 | x6 | x6 | x6 | %84
 x3!8va(! x2!8va)! x |!8va(! x2!8va)! x4 | x6 | x6 | x6 | x6 | x6 | x6 | x6 | x6 || %94
 z2 [FB] z2 [FB] | z2 [GB] z2 [FB] | x6 | x6 | z2 [FB] z2 [FB] | z2 [GB] z2 [FB] | x6 | x6 | %102
 z2 [ea] z2 [d^g] | x6 | z2 [fb] z2 [=eb] | x6 | x6 | x6 | [ce]3 [Be]3 | [Ae]3 [Ac]3 | %110
 z2 [FB] z2 [FB] | z2 [GB] z2 [FB] | x6 | x6 | z2 [FB] z2 [FB] | z2 [GB] z2 [FB] | x6 | x6 | %118
 z2 [ea] z2 [d^g] | x6 | z2 [fb] z2 [=eb] | x6 | x6 | x6 |1 z2 [df] [df]2 [df] | x6 :|2 %126
 z2 [df] [df]2 [df] | x6 |] %128

